docs/api/assets/diagrams/sequence/figure8.svg

<svg xmlns="http://www.w3.org/2000/svg" xmlns:xlink="http://www.w3.org/1999/xlink" height="753" preserveAspectRatio="none" style="width:941px;height:753px" width="941">
  <defs>
    <filter height="300%" id="a" width="300%" x="-1" y="-1">
      <feGaussianBlur result="blurOut" stdDeviation="2"/>
      <feColorMatrix in="blurOut" result="blurOut2" values="0 0 0 0 0 0 0 0 0 0 0 0 0 0 0 0 0 0 .4 0"/>
      <feOffset dx="4" dy="4" in="blurOut2" result="blurOut3"/>
      <feBlend in="SourceGraphic" in2="blurOut3"/>
    </filter>
  </defs>
  <path fill="#F4F4F4" stroke="#000" d="M238 185.547h10v543.188h-10zM454 244.945h10v351.992h-10zM685 333.477h10v205.195h-10z"/>
  <path stroke="#000" stroke-dasharray="5,5" d="M41 139.281v607.453M243 139.281v607.453M458.5 139.281v607.453M690 139.281v607.453M902 139.281v607.453"/>
  <image height="48" width="25" x="25.5" xlink:href="data:image/png;base64,iVBORw0KGgoAAAANSUhEUgAAABkAAAAwCAIAAABrKEbKAAABSElEQVR4Xu2WWxGDMBBF6wkLWMACFmIBC1jAAhawgIVYSC+5sLPdJjzSL6acD6Zss6e7eUBf4QjvvQ1leNmAou/7qqqapsG1bdtDadaF5GEYmI/rPM+I4GrHKdIuVCQi4iPQqVGWtKuu6++OEHHOjeNo4kLChRzMUdLVR0xcSLhCvq6u60zvmrQLvUzTZHJYL6b/movTrHNYFBpcluCSC6AuVIECOUf4vC8KOy6CVaOLrZ11TXnGDRM33tXlijAnYXEhqlu4BHNXl9uWvxgsy+riFv8FbrrHdZb/dQ0RNSwN9jZ2uNymXXwkyG0OuPh0Ix8uOYy3cn1Hyl16ALmjiy8rgBEnXU18LRG8mFcXvpBomYspiyts+NIeyYcrxL9Kl1w6Nzwu8rg0d3HxSGpwdOXwE9weu/D7OmcH/Ec8cAm6ox1MVtpVxhuJZSVRxbciVgAAAABJRU5ErkJggg==" y="68"/>
  <text font-family="Verdana" font-size="20" font-weight="bold" lengthAdjust="spacingAndGlyphs" textLength="66" x="5" y="134.565">
    Payer
  </text>
  <circle cx="41" cy="15" fill="#FFF" stroke="#fff" stroke-width="2" r="8"/>
  <path d="M41 23v27M28 31h26M41 50L28 65m13-15l13 15" fill="none" stroke="#fff" stroke-width="2"/>
  <path fill="#F4F4F4" filter="url(#a)" stroke="#383838" stroke-width="1.5" d="M201 73.719h80v60.563h-80z"/>
  <text font-family="Verdana" font-size="20" font-weight="bold" lengthAdjust="spacingAndGlyphs" textLength="66" x="208" y="99.283">
    Payer
  </text>
  <text font-family="Verdana" font-size="20" font-weight="bold" lengthAdjust="spacingAndGlyphs" textLength="43" x="219.5" y="122.564">
    FSP
  </text>
  <path fill="#F4F4F4" filter="url(#a)" stroke="#383838" stroke-width="1.5" d="M401.5 73.719h111v60.563h-111z"/>
  <text font-family="Verdana" font-size="20" font-weight="bold" lengthAdjust="spacingAndGlyphs" textLength="97" x="408.5" y="99.283">
    Optional
  </text>
  <text font-family="Verdana" font-size="20" font-weight="bold" lengthAdjust="spacingAndGlyphs" textLength="75" x="419.5" y="122.564">
    Switch
  </text>
  <path fill="#F4F4F4" filter="url(#a)" stroke="#383838" stroke-width="1.5" d="M646 73.719h84v60.563h-84z"/>
  <text font-family="Verdana" font-size="20" font-weight="bold" lengthAdjust="spacingAndGlyphs" textLength="70" x="653" y="99.283">
    Payee
  </text>
  <text font-family="Verdana" font-size="20" font-weight="bold" lengthAdjust="spacingAndGlyphs" textLength="43" x="666.5" y="122.564">
    FSP
  </text>
  <image height="48" width="25" x="886.5" xlink:href="data:image/png;base64,iVBORw0KGgoAAAANSUhEUgAAABkAAAAwCAIAAABrKEbKAAABSElEQVR4Xu2WWxGDMBBF6wkLWMACFmIBC1jAAhawgIVYSC+5sLPdJjzSL6acD6Zss6e7eUBf4QjvvQ1leNmAou/7qqqapsG1bdtDadaF5GEYmI/rPM+I4GrHKdIuVCQi4iPQqVGWtKuu6++OEHHOjeNo4kLChRzMUdLVR0xcSLhCvq6u60zvmrQLvUzTZHJYL6b/movTrHNYFBpcluCSC6AuVIECOUf4vC8KOy6CVaOLrZ11TXnGDRM33tXlijAnYXEhqlu4BHNXl9uWvxgsy+riFv8FbrrHdZb/dQ0RNSwN9jZ2uNymXXwkyG0OuPh0Ix8uOYy3cn1Hyl16ALmjiy8rgBEnXU18LRG8mFcXvpBomYspiyts+NIeyYcrxL9Kl1w6Nzwu8rg0d3HxSGpwdOXwE9weu/D7OmcH/Ec8cAm6ox1MVtpVxhuJZSVRxbciVgAAAABJRU5ErkJggg==" y="68"/>
  <text font-family="Verdana" font-size="20" font-weight="bold" lengthAdjust="spacingAndGlyphs" textLength="70" x="864" y="134.565">
    Payee
  </text>
  <circle cx="902" cy="15" fill="#FFF" stroke="#fff" stroke-width="2" r="8"/>
  <path d="M902 23v27m-13-19h26m-13 19l-13 15m13-15l13 15" fill="none" stroke="#fff" stroke-width="2"/>
  <path fill="#F4F4F4" stroke="#000" d="M238 185.547h10v543.188h-10zM454 244.945h10v351.992h-10zM685 333.477h10v205.195h-10z"/>
  <path stroke="#000" d="M236 185.547l-10-4M236 185.547l-10 4M41 185.547h196"/>
  <text font-family="Verdana" font-size="13" lengthAdjust="spacingAndGlyphs" textLength="145" x="67" y="165.348">
    I would like to Payee to
  </text>
  <text font-family="Verdana" font-size="13" lengthAdjust="spacingAndGlyphs" textLength="107" x="86" y="180.481">
    receive 100 USD
  </text>
  <path stroke="#000" d="M452 244.945l-10-4M452 244.945l-10 4M248 244.945h205"/>
  <text font-family="Verdana" font-size="13" font-weight="bold" lengthAdjust="spacingAndGlyphs" textLength="99" x="301.5" y="209.614">
    POST /quotes
  </text>
  <text font-family="Verdana" font-size="13" lengthAdjust="spacingAndGlyphs" textLength="163" x="269.5" y="224.747">
    (amountType=RECEIVED,
  </text>
  <text font-family="Verdana" font-size="13" lengthAdjust="spacingAndGlyphs" textLength="123" x="289.5" y="239.879">
    amount=100 USD)
  </text>
  <path stroke="#000" d="M248 274.078l10-4M248 274.078l10 4"/>
  <path stroke="#000" stroke-dasharray="2,2" d="M248 274.078h205"/>
  <text font-family="Verdana" font-size="13" font-weight="bold" lengthAdjust="spacingAndGlyphs" textLength="69" x="279.5" y="269.012">
    HTTP 202
  </text>
  <text font-family="Verdana" font-size="13" lengthAdjust="spacingAndGlyphs" textLength="70" x="352.5" y="269.012">
    (Accepted)
  </text>
  <path stroke="#000" d="M683 333.477l-10-4M683 333.477l-10 4M464 333.477h220"/>
  <text font-family="Verdana" font-size="13" font-weight="bold" lengthAdjust="spacingAndGlyphs" textLength="99" x="525" y="298.145">
    POST /quotes
  </text>
  <text font-family="Verdana" font-size="13" lengthAdjust="spacingAndGlyphs" textLength="153" x="498" y="313.278">
    (amountType=RECEIVE,
  </text>
  <text font-family="Verdana" font-size="13" lengthAdjust="spacingAndGlyphs" textLength="123" x="513" y="328.411">
    amount=100 USD)
  </text>
  <path stroke="#000" d="M464 362.609l10-4M464 362.609l10 4"/>
  <path stroke="#000" stroke-dasharray="2,2" d="M464 362.609h220"/>
  <text font-family="Verdana" font-size="13" font-weight="bold" lengthAdjust="spacingAndGlyphs" textLength="69" x="503" y="357.543">
    HTTP 202
  </text>
  <text font-family="Verdana" font-size="13" lengthAdjust="spacingAndGlyphs" textLength="70" x="576" y="357.543">
    (Accepted)
  </text>
  <path stroke="#000" d="M695 437.141h42M737 437.141v13M696 450.141h41M706 446.14l-10 4 10 4-4-4z"/>
  <text font-family="Verdana" font-size="13" lengthAdjust="spacingAndGlyphs" textLength="146" x="702" y="386.676">
    Rate transaction fee or
  </text>
  <text font-family="Verdana" font-size="13" lengthAdjust="spacingAndGlyphs" textLength="164" x="702" y="401.809">
    commission for handeling
  </text>
  <text font-family="Verdana" font-size="13" lengthAdjust="spacingAndGlyphs" textLength="184" x="702" y="416.942">
    transaction in Payee FSP =&gt;
  </text>
  <text font-family="Verdana" font-size="13" lengthAdjust="spacingAndGlyphs" textLength="150" x="702" y="432.075">
    FSP commission 1 USD
  </text>
  <path stroke="#000" d="M464 509.539l10-4M464 509.539l10 4M464 509.539h220"/>
  <text font-family="Verdana" font-size="13" font-weight="bold" lengthAdjust="spacingAndGlyphs" textLength="94" x="510" y="474.207">
    PUT /quotes/
  </text>
  <text font-family="Verdana" font-size="13" font-style="italic" lengthAdjust="spacingAndGlyphs" textLength="35" x="604" y="474.207">
    &lt;ID&gt;
  </text>
  <text font-family="Verdana" font-size="13" lengthAdjust="spacingAndGlyphs" textLength="170" x="489.5" y="489.34">
    (transferAmount=99 USD,
  </text>
  <text font-family="Verdana" font-size="13" lengthAdjust="spacingAndGlyphs" textLength="197" x="476" y="504.473">
    payeeFspCommission=1 USD)
  </text>
  <path stroke="#000" d="M688 538.672l-10-4M688 538.672l-10 4"/>
  <path stroke="#000" stroke-dasharray="2,2" d="M464 538.672h225"/>
  <text font-family="Verdana" font-size="13" font-weight="bold" lengthAdjust="spacingAndGlyphs" textLength="69" x="526.5" y="533.606">
    HTTP 200
  </text>
  <text font-family="Verdana" font-size="13" lengthAdjust="spacingAndGlyphs" textLength="28" x="599.5" y="533.606">
    (OK)
  </text>
  <path stroke="#000" d="M248 567.805l10-4M248 567.805l10 4M248 567.805h205"/>
  <text font-family="Verdana" font-size="13" font-weight="bold" lengthAdjust="spacingAndGlyphs" textLength="94" x="286.5" y="562.739">
    PUT /quotes/
  </text>
  <text font-family="Verdana" font-size="13" font-style="italic" lengthAdjust="spacingAndGlyphs" textLength="35" x="380.5" y="562.739">
    &lt;ID&gt;
  </text>
  <path stroke="#000" d="M457 596.938l-10-4M457 596.938l-10 4"/>
  <path stroke="#000" stroke-dasharray="2,2" d="M248 596.938h210"/>
  <text font-family="Verdana" font-size="13" font-weight="bold" lengthAdjust="spacingAndGlyphs" textLength="69" x="303" y="591.872">
    HTTP 200
  </text>
  <text font-family="Verdana" font-size="13" lengthAdjust="spacingAndGlyphs" textLength="28" x="376" y="591.872">
    (OK)
  </text>
  <path stroke="#000" d="M248 671.469h42M290 671.469v13M249 684.469h41M259 680.469l-10 4 10 4-4-4z"/>
  <text font-family="Verdana" font-size="13" lengthAdjust="spacingAndGlyphs" textLength="113" x="255" y="621.004">
    Keep commission
  </text>
  <text font-family="Verdana" font-size="13" lengthAdjust="spacingAndGlyphs" textLength="102" x="255" y="636.137">
    fee for Payer for
  </text>
  <text font-family="Verdana" font-size="13" lengthAdjust="spacingAndGlyphs" textLength="145" x="255" y="651.27">
    handling transaction in
  </text>
  <text font-family="Verdana" font-size="13" lengthAdjust="spacingAndGlyphs" textLength="192" x="255" y="666.403">
    Payer FSP =&gt; total fee 1 USD
  </text>
  <path stroke="#000" d="M41 728.734l10-4M41 728.734l10 4M41 728.734h201"/>
  <text font-family="Verdana" font-size="13" lengthAdjust="spacingAndGlyphs" textLength="173" x="55.5" y="708.536">
    Sending 100 USD to Payee
  </text>
  <text font-family="Verdana" font-size="13" lengthAdjust="spacingAndGlyphs" textLength="140" x="72" y="723.668">
    will cost 1 USD in fees
  </text>
</svg>

<?xml version="1.0" encoding="UTF-8" standalone="no"?>
<svg xmlns="http://www.w3.org/2000/svg" xmlns:xlink="http://www.w3.org/1999/xlink" contentScriptType="application/ecmascript" contentStyleType="text/css" height="753px" preserveAspectRatio="none" style="width:941px;height:753px" version="1.1" viewBox="0 0 941 753" width="941px" zoomAndPan="magnify">
  <defs>
    <filter height="300%" id="fyphr4bwll45r" width="300%" x="-1" y="-1">
      <feGaussianBlur result="blurOut" stdDeviation="2.0"/>
      <feColorMatrix in="blurOut" result="blurOut2" type="matrix" values="0 0 0 0 0 0 0 0 0 0 0 0 0 0 0 0 0 0 .4 0"/>
      <feOffset dx="4.0" dy="4.0" in="blurOut2" result="blurOut3"/>
      <feBlend in="SourceGraphic" in2="blurOut3" mode="normal"/>
    </filter>
  </defs>
  <g>
    <rect fill="#F4F4F4" height="543.1875" style="stroke:#000000;stroke-width:1.0" width="10" x="238" y="185.5469"/>
    <rect fill="#F4F4F4" height="351.9922" style="stroke:#000000;stroke-width:1.0" width="10" x="454" y="244.9453"/>
    <rect fill="#F4F4F4" height="205.1953" style="stroke:#000000;stroke-width:1.0" width="10" x="685" y="333.4766"/>
    <line style="stroke:#000000;stroke-width:1.0;stroke-dasharray:5.0,5.0" x1="41" x2="41" y1="139.2813" y2="746.7344"/>
    <line style="stroke:#000000;stroke-width:1.0;stroke-dasharray:5.0,5.0" x1="243" x2="243" y1="139.2813" y2="746.7344"/>
    <line style="stroke:#000000;stroke-width:1.0;stroke-dasharray:5.0,5.0" x1="458.5" x2="458.5" y1="139.2813" y2="746.7344"/>
    <line style="stroke:#000000;stroke-width:1.0;stroke-dasharray:5.0,5.0" x1="690" x2="690" y1="139.2813" y2="746.7344"/>
    <line style="stroke:#000000;stroke-width:1.0;stroke-dasharray:5.0,5.0" x1="902" x2="902" y1="139.2813" y2="746.7344"/>
    <image height="48" width="25" x="25.5" xlink:href="data:image/png;base64,iVBORw0KGgoAAAANSUhEUgAAABkAAAAwCAIAAABrKEbKAAABSElEQVR4Xu2WWxGDMBBF6wkLWMACFmIBC1jAAhawgIVYSC+5sLPdJjzSL6acD6Zss6e7eUBf4QjvvQ1leNmAou/7qqqapsG1bdtDadaF5GEYmI/rPM+I4GrHKdIuVCQi4iPQqVGWtKuu6++OEHHOjeNo4kLChRzMUdLVR0xcSLhCvq6u60zvmrQLvUzTZHJYL6b/movTrHNYFBpcluCSC6AuVIECOUf4vC8KOy6CVaOLrZ11TXnGDRM33tXlijAnYXEhqlu4BHNXl9uWvxgsy+riFv8FbrrHdZb/dQ0RNSwN9jZ2uNymXXwkyG0OuPh0Ix8uOYy3cn1Hyl16ALmjiy8rgBEnXU18LRG8mFcXvpBomYspiyts+NIeyYcrxL9Kl1w6Nzwu8rg0d3HxSGpwdOXwE9weu/D7OmcH/Ec8cAm6ox1MVtpVxhuJZSVRxbciVgAAAABJRU5ErkJggg==" y="68"/>
    <text fill="#000000" font-family="Verdana" font-size="20" font-weight="bold" lengthAdjust="spacingAndGlyphs" textLength="66" x="5" y="134.5645">Payer</text>
    <ellipse cx="41" cy="15" fill="#FFFFFF" rx="8" ry="8" style="stroke:#FFFFFF;stroke-width:2.0"/>
    <path d="M41,23 L41,50 M28,31 L54,31 M41,50 L28,65 M41,50 L54,65 " fill="none" style="stroke:#FFFFFF;stroke-width:2.0"/>
    <rect fill="#F4F4F4" filter="url(#fyphr4bwll45r)" height="60.5625" style="stroke:#383838;stroke-width:1.5" width="80" x="201" y="73.7188"/>
    <text fill="#000000" font-family="Verdana" font-size="20" font-weight="bold" lengthAdjust="spacingAndGlyphs" textLength="66" x="208" y="99.2832">Payer</text>
    <text fill="#000000" font-family="Verdana" font-size="20" font-weight="bold" lengthAdjust="spacingAndGlyphs" textLength="43" x="219.5" y="122.5645">FSP</text>
    <rect fill="#F4F4F4" filter="url(#fyphr4bwll45r)" height="60.5625" style="stroke:#383838;stroke-width:1.5" width="111" x="401.5" y="73.7188"/>
    <text fill="#000000" font-family="Verdana" font-size="20" font-weight="bold" lengthAdjust="spacingAndGlyphs" textLength="97" x="408.5" y="99.2832">Optional</text>
    <text fill="#000000" font-family="Verdana" font-size="20" font-weight="bold" lengthAdjust="spacingAndGlyphs" textLength="75" x="419.5" y="122.5645">Switch</text>
    <rect fill="#F4F4F4" filter="url(#fyphr4bwll45r)" height="60.5625" style="stroke:#383838;stroke-width:1.5" width="84" x="646" y="73.7188"/>
    <text fill="#000000" font-family="Verdana" font-size="20" font-weight="bold" lengthAdjust="spacingAndGlyphs" textLength="70" x="653" y="99.2832">Payee</text>
    <text fill="#000000" font-family="Verdana" font-size="20" font-weight="bold" lengthAdjust="spacingAndGlyphs" textLength="43" x="666.5" y="122.5645">FSP</text>
    <image height="48" width="25" x="886.5" xlink:href="data:image/png;base64,iVBORw0KGgoAAAANSUhEUgAAABkAAAAwCAIAAABrKEbKAAABSElEQVR4Xu2WWxGDMBBF6wkLWMACFmIBC1jAAhawgIVYSC+5sLPdJjzSL6acD6Zss6e7eUBf4QjvvQ1leNmAou/7qqqapsG1bdtDadaF5GEYmI/rPM+I4GrHKdIuVCQi4iPQqVGWtKuu6++OEHHOjeNo4kLChRzMUdLVR0xcSLhCvq6u60zvmrQLvUzTZHJYL6b/movTrHNYFBpcluCSC6AuVIECOUf4vC8KOy6CVaOLrZ11TXnGDRM33tXlijAnYXEhqlu4BHNXl9uWvxgsy+riFv8FbrrHdZb/dQ0RNSwN9jZ2uNymXXwkyG0OuPh0Ix8uOYy3cn1Hyl16ALmjiy8rgBEnXU18LRG8mFcXvpBomYspiyts+NIeyYcrxL9Kl1w6Nzwu8rg0d3HxSGpwdOXwE9weu/D7OmcH/Ec8cAm6ox1MVtpVxhuJZSVRxbciVgAAAABJRU5ErkJggg==" y="68"/>
    <text fill="#000000" font-family="Verdana" font-size="20" font-weight="bold" lengthAdjust="spacingAndGlyphs" textLength="70" x="864" y="134.5645">Payee</text>
    <ellipse cx="902" cy="15" fill="#FFFFFF" rx="8" ry="8" style="stroke:#FFFFFF;stroke-width:2.0"/>
    <path d="M902,23 L902,50 M889,31 L915,31 M902,50 L889,65 M902,50 L915,65 " fill="none" style="stroke:#FFFFFF;stroke-width:2.0"/>
    <rect fill="#F4F4F4" height="543.1875" style="stroke:#000000;stroke-width:1.0" width="10" x="238" y="185.5469"/>
    <rect fill="#F4F4F4" height="351.9922" style="stroke:#000000;stroke-width:1.0" width="10" x="454" y="244.9453"/>
    <rect fill="#F4F4F4" height="205.1953" style="stroke:#000000;stroke-width:1.0" width="10" x="685" y="333.4766"/>
    <line style="stroke:#000000;stroke-width:1.0" x1="236" x2="226" y1="185.5469" y2="181.5469"/>
    <line style="stroke:#000000;stroke-width:1.0" x1="236" x2="226" y1="185.5469" y2="189.5469"/>
    <line style="stroke:#000000;stroke-width:1.0" x1="41" x2="237" y1="185.5469" y2="185.5469"/>
    <text fill="#000000" font-family="Verdana" font-size="13" lengthAdjust="spacingAndGlyphs" textLength="145" x="67" y="165.3481">I would like to Payee to</text>
    <text fill="#000000" font-family="Verdana" font-size="13" lengthAdjust="spacingAndGlyphs" textLength="107" x="86" y="180.481">receive 100 USD</text>
    <line style="stroke:#000000;stroke-width:1.0" x1="452" x2="442" y1="244.9453" y2="240.9453"/>
    <line style="stroke:#000000;stroke-width:1.0" x1="452" x2="442" y1="244.9453" y2="248.9453"/>
    <line style="stroke:#000000;stroke-width:1.0" x1="248" x2="453" y1="244.9453" y2="244.9453"/>
    <text fill="#000000" font-family="Verdana" font-size="13" font-weight="bold" lengthAdjust="spacingAndGlyphs" textLength="99" x="301.5" y="209.6138">POST /quotes</text>
    <text fill="#000000" font-family="Verdana" font-size="13" lengthAdjust="spacingAndGlyphs" textLength="163" x="269.5" y="224.7466">(amountType=RECEIVED,</text>
    <text fill="#000000" font-family="Verdana" font-size="13" lengthAdjust="spacingAndGlyphs" textLength="123" x="289.5" y="239.8794">amount=100 USD)</text>
    <line style="stroke:#000000;stroke-width:1.0" x1="248" x2="258" y1="274.0781" y2="270.0781"/>
    <line style="stroke:#000000;stroke-width:1.0" x1="248" x2="258" y1="274.0781" y2="278.0781"/>
    <line style="stroke:#000000;stroke-width:1.0;stroke-dasharray:2.0,2.0" x1="248" x2="453" y1="274.0781" y2="274.0781"/>
    <text fill="#000000" font-family="Verdana" font-size="13" font-weight="bold" lengthAdjust="spacingAndGlyphs" textLength="69" x="279.5" y="269.0122">HTTP 202</text>
    <text fill="#000000" font-family="Verdana" font-size="13" lengthAdjust="spacingAndGlyphs" textLength="70" x="352.5" y="269.0122">(Accepted)</text>
    <line style="stroke:#000000;stroke-width:1.0" x1="683" x2="673" y1="333.4766" y2="329.4766"/>
    <line style="stroke:#000000;stroke-width:1.0" x1="683" x2="673" y1="333.4766" y2="337.4766"/>
    <line style="stroke:#000000;stroke-width:1.0" x1="464" x2="684" y1="333.4766" y2="333.4766"/>
    <text fill="#000000" font-family="Verdana" font-size="13" font-weight="bold" lengthAdjust="spacingAndGlyphs" textLength="99" x="525" y="298.145">POST /quotes</text>
    <text fill="#000000" font-family="Verdana" font-size="13" lengthAdjust="spacingAndGlyphs" textLength="153" x="498" y="313.2778">(amountType=RECEIVE,</text>
    <text fill="#000000" font-family="Verdana" font-size="13" lengthAdjust="spacingAndGlyphs" textLength="123" x="513" y="328.4106">amount=100 USD)</text>
    <line style="stroke:#000000;stroke-width:1.0" x1="464" x2="474" y1="362.6094" y2="358.6094"/>
    <line style="stroke:#000000;stroke-width:1.0" x1="464" x2="474" y1="362.6094" y2="366.6094"/>
    <line style="stroke:#000000;stroke-width:1.0;stroke-dasharray:2.0,2.0" x1="464" x2="684" y1="362.6094" y2="362.6094"/>
    <text fill="#000000" font-family="Verdana" font-size="13" font-weight="bold" lengthAdjust="spacingAndGlyphs" textLength="69" x="503" y="357.5435">HTTP 202</text>
    <text fill="#000000" font-family="Verdana" font-size="13" lengthAdjust="spacingAndGlyphs" textLength="70" x="576" y="357.5435">(Accepted)</text>
    <line style="stroke:#000000;stroke-width:1.0" x1="695" x2="737" y1="437.1406" y2="437.1406"/>
    <line style="stroke:#000000;stroke-width:1.0" x1="737" x2="737" y1="437.1406" y2="450.1406"/>
    <line style="stroke:#000000;stroke-width:1.0" x1="696" x2="737" y1="450.1406" y2="450.1406"/>
    <polygon fill="#000000" points="706,446.1406,696,450.1406,706,454.1406,702,450.1406" style="stroke:#000000;stroke-width:1.0"/>
    <text fill="#000000" font-family="Verdana" font-size="13" lengthAdjust="spacingAndGlyphs" textLength="146" x="702" y="386.6763">Rate transaction fee or</text>
    <text fill="#000000" font-family="Verdana" font-size="13" lengthAdjust="spacingAndGlyphs" textLength="164" x="702" y="401.8091">commission for handeling</text>
    <text fill="#000000" font-family="Verdana" font-size="13" lengthAdjust="spacingAndGlyphs" textLength="184" x="702" y="416.9419">transaction in Payee FSP =&gt;</text>
    <text fill="#000000" font-family="Verdana" font-size="13" lengthAdjust="spacingAndGlyphs" textLength="150" x="702" y="432.0747">FSP commission 1 USD</text>
    <line style="stroke:#000000;stroke-width:1.0" x1="464" x2="474" y1="509.5391" y2="505.5391"/>
    <line style="stroke:#000000;stroke-width:1.0" x1="464" x2="474" y1="509.5391" y2="513.5391"/>
    <line style="stroke:#000000;stroke-width:1.0" x1="464" x2="684" y1="509.5391" y2="509.5391"/>
    <text fill="#000000" font-family="Verdana" font-size="13" font-weight="bold" lengthAdjust="spacingAndGlyphs" textLength="94" x="510" y="474.2075">PUT /quotes/</text>
    <text fill="#000000" font-family="Verdana" font-size="13" font-style="italic" lengthAdjust="spacingAndGlyphs" textLength="35" x="604" y="474.2075">&lt;ID&gt;</text>
    <text fill="#000000" font-family="Verdana" font-size="13" lengthAdjust="spacingAndGlyphs" textLength="170" x="489.5" y="489.3403">(transferAmount=99 USD,</text>
    <text fill="#000000" font-family="Verdana" font-size="13" lengthAdjust="spacingAndGlyphs" textLength="197" x="476" y="504.4731">payeeFspCommission=1 USD)</text>
    <line style="stroke:#000000;stroke-width:1.0" x1="688" x2="678" y1="538.6719" y2="534.6719"/>
    <line style="stroke:#000000;stroke-width:1.0" x1="688" x2="678" y1="538.6719" y2="542.6719"/>
    <line style="stroke:#000000;stroke-width:1.0;stroke-dasharray:2.0,2.0" x1="464" x2="689" y1="538.6719" y2="538.6719"/>
    <text fill="#000000" font-family="Verdana" font-size="13" font-weight="bold" lengthAdjust="spacingAndGlyphs" textLength="69" x="526.5" y="533.606">HTTP 200</text>
    <text fill="#000000" font-family="Verdana" font-size="13" lengthAdjust="spacingAndGlyphs" textLength="28" x="599.5" y="533.606">(OK)</text>
    <line style="stroke:#000000;stroke-width:1.0" x1="248" x2="258" y1="567.8047" y2="563.8047"/>
    <line style="stroke:#000000;stroke-width:1.0" x1="248" x2="258" y1="567.8047" y2="571.8047"/>
    <line style="stroke:#000000;stroke-width:1.0" x1="248" x2="453" y1="567.8047" y2="567.8047"/>
    <text fill="#000000" font-family="Verdana" font-size="13" font-weight="bold" lengthAdjust="spacingAndGlyphs" textLength="94" x="286.5" y="562.7388">PUT /quotes/</text>
    <text fill="#000000" font-family="Verdana" font-size="13" font-style="italic" lengthAdjust="spacingAndGlyphs" textLength="35" x="380.5" y="562.7388">&lt;ID&gt;</text>
    <line style="stroke:#000000;stroke-width:1.0" x1="457" x2="447" y1="596.9375" y2="592.9375"/>
    <line style="stroke:#000000;stroke-width:1.0" x1="457" x2="447" y1="596.9375" y2="600.9375"/>
    <line style="stroke:#000000;stroke-width:1.0;stroke-dasharray:2.0,2.0" x1="248" x2="458" y1="596.9375" y2="596.9375"/>
    <text fill="#000000" font-family="Verdana" font-size="13" font-weight="bold" lengthAdjust="spacingAndGlyphs" textLength="69" x="303" y="591.8716">HTTP 200</text>
    <text fill="#000000" font-family="Verdana" font-size="13" lengthAdjust="spacingAndGlyphs" textLength="28" x="376" y="591.8716">(OK)</text>
    <line style="stroke:#000000;stroke-width:1.0" x1="248" x2="290" y1="671.4688" y2="671.4688"/>
    <line style="stroke:#000000;stroke-width:1.0" x1="290" x2="290" y1="671.4688" y2="684.4688"/>
    <line style="stroke:#000000;stroke-width:1.0" x1="249" x2="290" y1="684.4688" y2="684.4688"/>
    <polygon fill="#000000" points="259,680.4688,249,684.4688,259,688.4688,255,684.4688" style="stroke:#000000;stroke-width:1.0"/>
    <text fill="#000000" font-family="Verdana" font-size="13" lengthAdjust="spacingAndGlyphs" textLength="113" x="255" y="621.0044">Keep commission</text>
    <text fill="#000000" font-family="Verdana" font-size="13" lengthAdjust="spacingAndGlyphs" textLength="102" x="255" y="636.1372">fee for Payer for</text>
    <text fill="#000000" font-family="Verdana" font-size="13" lengthAdjust="spacingAndGlyphs" textLength="145" x="255" y="651.27">handling transaction in</text>
    <text fill="#000000" font-family="Verdana" font-size="13" lengthAdjust="spacingAndGlyphs" textLength="192" x="255" y="666.4028">Payer FSP =&gt; total fee 1 USD</text>
    <line style="stroke:#000000;stroke-width:1.0" x1="41" x2="51" y1="728.7344" y2="724.7344"/>
    <line style="stroke:#000000;stroke-width:1.0" x1="41" x2="51" y1="728.7344" y2="732.7344"/>
    <line style="stroke:#000000;stroke-width:1.0" x1="41" x2="242" y1="728.7344" y2="728.7344"/>
    <text fill="#000000" font-family="Verdana" font-size="13" lengthAdjust="spacingAndGlyphs" textLength="173" x="55.5" y="708.5356">Sending 100 USD to Payee</text>
    <text fill="#000000" font-family="Verdana" font-size="13" lengthAdjust="spacingAndGlyphs" textLength="140" x="72" y="723.6685">will cost 1 USD in fees</text>
  </g>
</svg>
